X:1
T:Square Root Of 3 March
M:2/2
L:1/4
R:march
K:G
GF BA|FD FG|FF DE|GG FF|
w: 1 7 3 2  0 5 0 8  0 7 5 6  8 8 7 7  
AA BD|AF CC|EB CG|DF DG:||
w: 2 9 3 5  2 7 4 4  6 3 4 1  5 0 5 8  
|:FA BE|EA CA|GF DA|DB GG|
w: 7 2 3 6  6 9 4 2  8 0 5 2  5 3 8 1  
FB GF|EA GF|DD GF|EA FA:|
w: 0 3 8 0  6 2 8 0  5 5 8 0  6 9 7 9  
